img/advantage/blue/icon-4-b.svg

<svg width="59" height="65" viewBox="0 0 59 65" fill="none" xmlns="http://www.w3.org/2000/svg">
<path d="M57.8674 48.9418C56.7246 47.2623 54.789 46.8505 52.6877 47.8388L38.0374 54.2896L38.0379 54.2448C38.0383 54.2093 38.0368 54.1738 38.0334 54.1386C37.7771 51.5615 35.8071 49.5081 33.2428 49.1454C33.2347 49.1442 33.2266 49.1432 33.2183 49.1423L23.4777 48.0208C21.4203 47.7275 20.4076 47.0394 18.5015 45.9237C15.6807 44.2736 12.4624 43.4014 9.19433 43.4014H8.58698V42.4158C8.58698 40.965 7.4067 39.7845 5.95575 39.7845H3.104C1.65318 39.7845 0.4729 40.965 0.4729 42.4158V60.6286C0.4729 62.0794 1.65318 63.2598 3.104 63.2598H5.95588C7.3549 63.2598 8.49913 62.1614 8.57924 60.7822L18.1138 64.3312C19.3069 64.7751 20.5573 65.0002 21.8298 65.0002H34.9678C36.9818 65.0002 38.9457 64.4327 40.6489 63.359L57.0781 54.09C58.2284 53.4404 59.2358 50.953 57.8674 48.9418ZM56.045 52.4865L39.6923 61.7123C39.6781 61.7203 39.6642 61.7286 39.6504 61.7373C38.2479 62.6261 36.6286 63.0959 34.9678 63.0959H21.8298C20.7848 63.0959 19.7578 62.9111 18.778 62.5463L8.58698 58.7531V51.8451C8.58698 51.3191 8.16067 50.8929 7.63483 50.8929C7.10899 50.8929 6.68268 51.3191 6.68268 51.8451V60.6287C6.68268 61.0295 6.35667 61.3557 5.95575 61.3557H3.104C2.70321 61.3557 2.3772 61.0296 2.3772 60.6287V42.4159C2.3772 42.0151 2.70321 41.689 3.104 41.689H5.95588C6.35667 41.689 6.68281 42.015 6.68281 42.4159V47.3925C6.68281 47.9184 7.10912 48.3446 7.63496 48.3446C8.1608 48.3446 8.58711 47.9184 8.58711 47.3925V45.3057H9.19458C12.125 45.3057 15.0108 46.0878 17.5402 47.5674C19.5611 48.7486 20.7887 49.5634 23.223 49.9079C23.2312 49.9092 23.2393 49.9102 23.2475 49.9111L32.9878 51.0326C34.6583 51.2741 35.9442 52.6033 36.1333 54.2771L36.1267 54.805C30.4677 54.7395 28.315 54.9937 24.6939 54.465L23.0078 54.2189C22.4878 54.1433 22.004 54.503 21.9281 55.0234C21.8522 55.5437 22.2124 56.0272 22.7327 56.1031L24.4188 56.3493C28.2657 56.9112 30.4845 56.6369 37.0671 56.7093C37.1989 56.7093 37.3377 56.6786 37.4508 56.6286L53.4666 49.5767C53.4744 49.5733 53.4822 49.5696 53.4899 49.566C54.3524 49.1583 55.5389 48.9047 56.2932 50.013C56.8213 50.7896 56.711 51.8365 56.045 52.4865Z" fill="#1E489B"/>
<path d="M12.2646 22.0304C13.033 22.6488 13.3099 23.6825 12.9537 24.6024C11.9936 27.0814 13.5729 29.808 16.1944 30.2154C16.836 30.315 17.3816 30.678 17.7239 31.1916L13.2653 39.8371C12.9977 40.3562 13.0547 40.9646 13.4141 41.4249C13.7735 41.885 14.3497 42.0875 14.9183 41.9539L19.7815 40.8086L21.6679 45.4349C21.8885 45.9757 22.3879 46.3277 22.9714 46.3536C22.9943 46.3546 23.0172 46.3552 23.0399 46.3552C23.596 46.3552 24.094 46.0529 24.3512 45.5542L28.5242 37.4627C29.1706 37.6181 29.8345 37.6184 30.4818 37.4627L34.6547 45.5542C34.9118 46.0529 35.41 46.3552 35.966 46.3552C35.9888 46.3552 36.0116 46.3546 36.0346 46.3536C36.6179 46.3277 37.1174 45.9756 37.338 45.4349L39.2244 40.8086L44.0876 41.9539C44.6562 42.0879 45.2325 41.8853 45.5919 41.4249C45.9513 40.9646 46.0083 40.3562 45.7407 39.8371L41.2821 31.1916C41.6243 30.678 42.17 30.315 42.8115 30.2154C45.4384 29.8071 47.0102 27.0763 46.0522 24.6024C45.696 23.6825 45.9729 22.6488 46.7413 22.0304C48.8106 20.3647 48.8098 17.2141 46.7413 15.549C45.973 14.9306 45.6961 13.8969 46.0522 12.9771C47.0121 10.498 45.4329 7.77156 42.8116 7.36417C41.8369 7.21272 41.0802 6.45607 40.9288 5.48146C40.5206 2.85454 37.7897 1.28261 35.3158 2.24072C34.3956 2.59695 33.3624 2.31994 32.7438 1.55162C31.0767 -0.519492 27.926 -0.514921 26.2625 1.55162C25.644 2.31994 24.6106 2.5967 23.6907 2.24072C21.2117 1.2807 18.485 2.86 18.0777 5.48146C17.9262 6.45607 17.1696 7.21272 16.195 7.36417C13.5681 7.77245 11.9964 10.5031 12.9543 12.9771C13.3105 13.8969 13.0336 14.9306 12.2652 15.549C10.1939 17.2161 10.1978 20.3668 12.2646 22.0304ZM23.0822 43.8599L21.4073 39.7521C21.1307 39.0739 20.4126 38.7033 19.6993 38.8714L15.3815 39.8884L18.622 33.6049C19.6434 35.3046 21.7694 36.0827 23.6902 35.3387C24.6098 34.9821 25.6435 35.2593 26.2621 36.0279C26.4326 36.2397 26.6219 36.4307 26.8252 36.6024L23.0822 43.8599ZM39.306 38.8714C38.5932 38.7042 37.8749 39.074 37.5981 39.7522L35.9233 43.8599L32.1803 36.6024C32.3835 36.4308 32.5728 36.2398 32.7433 36.0279C33.362 35.2596 34.3956 34.983 35.3151 35.3387C37.2363 36.0826 39.3622 35.3044 40.3834 33.6049L43.6238 39.8884L39.306 38.8714ZM13.4586 17.0325C14.8757 15.892 15.3864 13.9859 14.7296 12.2897C14.2089 10.9454 15.0652 9.4669 16.4869 9.246C18.2843 8.9667 19.6796 7.57136 19.9589 5.77383C20.1802 4.34992 21.6608 3.49667 23.0026 4.01654C24.6991 4.6734 26.6049 4.16279 27.7454 2.74574C28.6495 1.62259 30.3579 1.625 31.26 2.74574C32.4004 4.16254 34.3065 4.67327 36.003 4.01654C37.3468 3.49591 38.8257 4.35221 39.0466 5.77383C39.3258 7.57123 40.7212 8.96657 42.5187 9.246C43.9431 9.46728 44.7955 10.9481 44.2759 12.2897C43.619 13.9859 44.1298 15.892 45.5467 17.0325C46.6696 17.9363 46.6674 19.645 45.5467 20.547C44.1296 21.6875 43.6189 23.5936 44.2759 25.29C44.7964 26.6343 43.9401 28.1128 42.5186 28.3337C40.7212 28.6129 39.3258 30.0083 39.0466 31.8058C38.8255 33.2278 37.3472 34.0832 36.0029 33.563C34.3068 32.9066 32.4006 33.417 31.26 34.8339C30.3562 35.9568 28.6476 35.9546 27.7454 34.8339C26.6068 33.4193 24.7015 32.9052 23.0025 33.563C21.6588 34.0837 20.1798 33.2276 19.9589 31.8058C19.6796 30.0084 18.2843 28.6131 16.4867 28.3337C15.0623 28.1124 14.2099 26.6316 14.7296 25.29C15.3864 23.5936 14.8757 21.6875 13.4586 20.547C12.3357 19.6431 12.3382 17.9344 13.4586 17.0325Z" fill="#1E489B"/>
<path d="M17.5028 20.0795C16.986 20.1762 16.6453 20.6736 16.742 21.1905C17.8889 27.3221 23.2556 31.7725 29.5028 31.7725C36.6614 31.7725 42.4854 25.9486 42.4854 18.7899C42.4854 11.6313 36.6614 5.80731 29.5028 5.80731C23.2565 5.80731 17.8899 10.2569 16.7423 16.3873C16.6455 16.9042 16.986 17.4016 17.503 17.4984C18.0203 17.5949 18.5173 17.2545 18.6141 16.7377C19.5931 11.5078 24.1724 7.71161 29.5028 7.71161C35.6114 7.71161 40.5811 12.6813 40.5811 18.7899C40.5811 24.8985 35.6114 29.8682 29.5028 29.8682C24.1717 29.8682 19.5922 26.0716 18.6138 20.8405C18.5172 20.3235 18.0199 19.9839 17.5028 20.0795Z" fill="#1E489B"/>
<path d="M36.5138 15.2511L32.2788 15.0634L30.7917 11.0935C30.3456 9.90302 28.6596 9.90328 28.2136 11.0936L26.7266 15.0635L22.4915 15.2512C21.223 15.3072 20.699 16.9098 21.6948 17.703L25.0109 20.3442L23.8806 24.43C23.5416 25.6555 24.9056 26.6461 25.9663 25.9455L29.5027 23.6079L33.0394 25.9456C34.0961 26.6437 35.4651 25.6596 35.125 24.43L33.9947 20.3442L37.3107 17.703C38.3054 16.9105 37.7835 15.307 36.5138 15.2511ZM32.5354 19.0718C32.103 19.4163 31.9189 19.983 32.0663 20.5155L32.914 23.5796L30.2618 21.8265C30.2618 21.8265 30.2617 21.8263 30.2615 21.8263C30.0311 21.6741 29.7669 21.5979 29.5027 21.5979C29.2385 21.5979 28.9742 21.6741 28.7435 21.8265L26.0914 23.5796L26.939 20.5157C27.0866 19.983 26.9023 19.4163 26.4699 19.0718L23.9832 17.0911L27.1595 16.9504C27.7115 16.9259 28.1936 16.5757 28.3874 16.0582L29.5026 13.0812L30.6179 16.0583C30.8117 16.5757 31.2938 16.9259 31.846 16.9504L35.022 17.0911L32.5354 19.0718Z" fill="#1E489B"/>
</svg>

<svg width="59" height="65" fill="none" xmlns="http://www.w3.org/2000/svg"><path d="M57.867 48.942c-1.142-1.68-3.078-2.092-5.18-1.103l-14.65 6.45v-.044a.99.99 0 0 0-.004-.106 5.59 5.59 0 0 0-4.815-4.997l-9.74-1.121c-2.058-.294-3.07-.982-4.977-2.097A18.45 18.45 0 0 0 9.194 43.4h-.607v-.985c0-1.451-1.18-2.631-2.631-2.631H3.104a2.634 2.634 0 0 0-2.631 2.63V60.63c0 1.45 1.18 2.63 2.631 2.63h2.852a2.632 2.632 0 0 0 2.623-2.477l9.535 3.55c1.193.443 2.443.668 3.716.668h13.138c2.014 0 3.978-.567 5.68-1.641l16.43-9.269c1.15-.65 2.158-3.137.79-5.148zm-1.822 3.544-16.353 9.226a8.735 8.735 0 0 1-4.725 1.384H21.83a8.719 8.719 0 0 1-3.052-.55L8.587 58.753v-6.908a.952.952 0 1 0-1.904 0v8.784c0 .4-.326.727-.727.727H3.104a.728.728 0 0 1-.727-.727V42.416c0-.4.326-.727.727-.727h2.852c.4 0 .727.326.727.727v4.977a.952.952 0 1 0 1.904 0v-2.087h.608c2.93 0 5.816.782 8.345 2.261 2.021 1.182 3.249 1.996 5.683 2.34a.513.513 0 0 0 .024.004l9.74 1.122a3.69 3.69 0 0 1 3.146 3.244l-.006.528c-5.66-.066-7.812.189-11.433-.34l-1.686-.246a.952.952 0 0 0-.275 1.884l1.686.246c3.847.562 6.066.288 12.648.36a.98.98 0 0 0 .384-.08l16.016-7.052.023-.011c.862-.408 2.049-.661 2.803.447a1.94 1.94 0 0 1-.248 2.474z" fill="#1E489B"/><path d="M12.265 22.03a2.248 2.248 0 0 1 .689 2.572c-.96 2.48.619 5.206 3.24 5.613.642.1 1.188.463 1.53.977l-4.459 8.645c-.267.52-.21 1.128.15 1.588.359.46.935.663 1.503.529l4.864-1.145 1.886 4.626a1.464 1.464 0 0 0 1.372.92c.556 0 1.054-.302 1.311-.8l4.173-8.092c.647.155 1.31.155 1.958 0l4.173 8.091a1.463 1.463 0 0 0 1.38.8 1.464 1.464 0 0 0 1.303-.92l1.886-4.625 4.864 1.145a1.463 1.463 0 0 0 1.504-.53c.36-.46.416-1.068.149-1.587l-4.459-8.645a2.247 2.247 0 0 1 1.53-.977 4.16 4.16 0 0 0 3.24-5.613 2.248 2.248 0 0 1 .69-2.572 4.16 4.16 0 0 0 0-6.481 2.248 2.248 0 0 1-.69-2.572 4.16 4.16 0 0 0-3.24-5.613 2.248 2.248 0 0 1-1.883-1.883 4.16 4.16 0 0 0-5.613-3.24c-.92.356-1.954.079-2.572-.69a4.16 4.16 0 0 0-6.482 0 2.248 2.248 0 0 1-2.571.69 4.16 4.16 0 0 0-5.613 3.24 2.248 2.248 0 0 1-1.883 1.883 4.16 4.16 0 0 0-3.24 5.613c.355.92.079 1.954-.69 2.572a4.16 4.16 0 0 0 0 6.481zm10.817 21.83-1.675-4.108a1.471 1.471 0 0 0-1.708-.88l-4.318 1.016 3.241-6.283a4.162 4.162 0 0 0 5.068 1.734 2.247 2.247 0 0 1 2.572.689c.17.212.36.403.563.574l-3.743 7.258zm16.224-4.989a1.472 1.472 0 0 0-1.708.881l-1.675 4.108-3.743-7.258c.203-.171.393-.362.563-.574a2.25 2.25 0 0 1 2.572-.69 4.162 4.162 0 0 0 5.068-1.733l3.24 6.283-4.317-1.017zM13.459 17.032a4.146 4.146 0 0 0 1.27-4.742 2.256 2.256 0 0 1 1.758-3.044 4.146 4.146 0 0 0 3.472-3.472 2.256 2.256 0 0 1 3.044-1.757 4.145 4.145 0 0 0 4.742-1.271 2.256 2.256 0 0 1 3.515 0 4.146 4.146 0 0 0 4.743 1.27 2.256 2.256 0 0 1 3.044 1.758 4.146 4.146 0 0 0 3.472 3.472 2.256 2.256 0 0 1 1.757 3.044 4.146 4.146 0 0 0 1.27 4.742 2.256 2.256 0 0 1 0 3.515 4.145 4.145 0 0 0-1.27 4.743 2.256 2.256 0 0 1-1.757 3.044 4.146 4.146 0 0 0-3.472 3.472 2.256 2.256 0 0 1-3.044 1.757 4.147 4.147 0 0 0-4.743 1.27 2.256 2.256 0 0 1-3.515 0 4.146 4.146 0 0 0-4.742-1.27 2.256 2.256 0 0 1-3.044-1.757 4.146 4.146 0 0 0-3.472-3.472 2.256 2.256 0 0 1-1.757-3.044 4.146 4.146 0 0 0-1.271-4.743 2.256 2.256 0 0 1 0-3.515z" fill="#1E489B"/><path d="M17.503 20.08a.952.952 0 0 0-.761 1.11c1.147 6.132 6.514 10.582 12.76 10.582 7.16 0 12.983-5.823 12.983-12.982 0-7.159-5.824-12.983-12.982-12.983-6.247 0-11.613 4.45-12.76 10.58a.952.952 0 1 0 1.871.35c.98-5.23 5.558-9.025 10.889-9.025 6.108 0 11.078 4.97 11.078 11.078s-4.97 11.078-11.078 11.078c-5.331 0-9.91-3.796-10.89-9.027a.953.953 0 0 0-1.11-.762z" fill="#1E489B"/><path d="m36.514 15.251-4.235-.188-1.487-3.97c-.446-1.19-2.132-1.19-2.578 0l-1.487 3.97-4.236.188c-1.268.056-1.792 1.659-.796 2.452l3.316 2.641-1.13 4.086c-.34 1.226 1.025 2.216 2.085 1.515l3.537-2.337 3.536 2.338c1.057.698 2.426-.286 2.086-1.516l-1.13-4.086 3.316-2.641c.994-.793.472-2.396-.797-2.452zm-3.979 3.82a1.374 1.374 0 0 0-.469 1.444l.848 3.065-2.652-1.753a1.375 1.375 0 0 0-1.518 0L26.09 23.58l.848-3.064a1.374 1.374 0 0 0-.47-1.444l-2.486-1.98 3.177-.142a1.374 1.374 0 0 0 1.227-.892l1.116-2.977 1.115 2.977c.194.518.676.868 1.228.892l3.176.141-2.487 1.98z" fill="#1E489B"/></svg>
